!!!OTL: Le désappointement (121), S. 279f
!!!id: T0286
**kern
*clefG2
*k[f#c#]
*D:
{8d
=1
8d
8e
8f#
8g
=2
8a
8a}
=3
{4dd
=4
8b
8cc#
8dd
8b
=5
4a}
8r
=6
{8a
=7
8b
8a
8b
8cc#
=8
8dd
8a
8a}
=9
{8a
=10
8b
8a
8b
8cc#
=11
8dd
8a
8a}
=12
{8dd
=13
8a
8b
8a
8g
=14
4f#}
=15
{8b
8b
=16
8a
8g
8f#
8e
=17
4d}
8r
==
*-
!!!minrhy: 8
!!!meters: 2/4 ]  ZZ[6
!!!cut: Le désappointement (121), S. 279f
!!!reg: Luxemburg
!!!trd: Singendes Volk, Esch-Alzette 1937 posth.
!!!rhy1: X  XXXX  XX
!!!rhy2: X_  XXXX  X_0
!!!key: T0286  08  D 2/4 ]  ZZ[6
!!!mod: HEPTATONIK IONISCH]  AMBITUS[8
!!!kad: 555531
!!!akz: 15_65_6+1_6+1_53_51_
!!!fot: 'a__b__bw_bw_c__d__
!!!for: 'a__aw_aw_aw_aw_aw_
!!!fok: '/__Sd_^__^__\__\__
!! PHRAS[AUFTAKTIG]
!!!fkt: Liebeslieder
!!!bem1: Fischbach bei Mersch, hhh Leo Godefroid-Haag,
!!!bem2: mitgeteilt: hhh Heinrich Godefroid (Lehrer)
!! THILL, Mathias:
!! PR[30] 2K[2] 2G[6] 3K[2] 3G[2] 4A[6] 4Ü[0] 5A[2] 6K[2] 6G[0]
!! 7K[2] 7G[0] 8A[2] MEHR[0] SI[25] ABS[53] SR[8] SP[17]
!! ST[10] 2k[9] 2g[25] 3k[2] 3g[4] 4d[2] 4ü[2] 5d[0] 6k[2] 6g[0]
!! 7k[0] 7g[0] 8d[0] mehr[0] si[45] dm[-20] sr[34] sp[11]
!! 1F[7] 2F[71] 3F[10] 4F[5] LF[0] 2P[0] 3P[7] 4P[0] TRI[0] DF[5] AB[59]
!! TF[0] U3K[0] U3[0] U4[0] U4Ü[0] U5[0] U6K[0] U6[0] U7K[0] U7[0]
!! N1[0] N2K[0] N2[4] N3K[0] N3[9] N4[7] N4Ü[0] N5[22] N6K[0] N6[9]
!!!n7k: 0] N7[6] O1[28] O2K[0] O2[7] O3K[0] O3[6] HÖ[2
